X:3103
T:Margaret Parker's Strathspey
P:Prince Albert's Strathspey
C:Middleton's Selection
R:Strathspey (8x32)
B:RSCDS 31-3
Z:Anselm Lingnau <anselm@strathspey.org>
M:C
L:1/8
K:A
% %scl 0.83
A>B|"A"c<EA>B c>B "A7"c<e|"D"{e}d>c d<f "A"e2 "E7"{d}c>B|\
    "A"A>c "E7"B>d "A7"c>e "D"d>f|"A"e>E e>f "E7"(3efe (3dcB|
    "A"c<EA>B c>B "A7"c<e|"D"{e}d>c d<f "A"e2 "E7"c>d|\
    "A"e<a"E7"g>f "A"e/f/e/d/ "Bm"c/d/c/B/|"A"A<c"E7"B>G "A"A2||
ef/g/|"A"a>A c<e a>g f<e|"Bm"(3dbd (3cac B>c d<f|\
    "B"b>B ^d<f "B7"b>a g>f|"E"e<a "B7"g>f "E"e>f "E7"g<b|
    "A"a<A c<e a>g f>e|"Bm"(3dbd "A"(3cac "E7"B>cdf|\
    "A"e<a"E7"g>f "A"e/f/e/d/ "Bm"c/d/c/B/|"A"A<c"E7"B>G "A"A2|]
